dist/img/media-bay.svg

<svg width="75" height="15" viewBox="0 0 75 15" fill="none" xmlns="http://www.w3.org/2000/svg">
<path d="M10.8126 11.3814H9.174V7.19204C9.174 6.3871 9.06595 5.80374 8.849 5.44287C8.63716 5.08291 8.27728 4.90202 7.76851 4.90202C7.34056 4.90202 6.97558 5.12994 6.6744 5.58577C6.37748 6.0407 6.22944 6.58698 6.22944 7.22279V11.3814H4.58317V7.04914C4.58317 5.61833 4.10673 4.90202 3.15641 4.90202C2.714 4.90202 2.34816 5.11728 2.06145 5.54778C1.77899 5.97829 1.63776 6.53633 1.63776 7.22189V11.3814H0V3.6937H1.63946V4.91016H1.66754C2.18992 3.9786 2.94967 3.51281 3.94849 3.51281C4.44705 3.51281 4.88265 3.66024 5.25444 3.95598C5.63134 4.2454 5.88742 4.62888 6.0244 5.10461C6.56039 4.04281 7.36183 3.51281 8.42531 3.51281C10.0163 3.51281 10.8126 4.55653 10.8126 6.64305V11.3814ZM20.0913 8.01055H15.1618C15.1805 8.72143 15.3856 9.26952 15.7761 9.65481C16.1717 10.0401 16.7128 10.2327 17.4011 10.2327C18.1727 10.2327 18.8814 9.98764 19.5263 9.49653V10.9011C18.867 11.3416 17.9958 11.5614 16.9127 11.5614C15.8493 11.5614 15.0138 11.214 14.4063 10.5176C13.8031 9.81761 13.5019 8.83358 13.5019 7.56738C13.5019 6.37172 13.8337 5.39765 14.4974 4.64697C15.1661 3.89177 15.9947 3.51372 16.9833 3.51372C17.9728 3.51372 18.7377 3.85107 19.2788 4.52668C19.8207 5.20229 20.0913 6.14109 20.0913 7.34218V8.01055ZM18.5088 6.77962C18.5045 6.15375 18.3659 5.66807 18.0919 5.32349C17.8197 4.97257 17.4428 4.79711 16.9629 4.79711C16.4916 4.79711 16.0917 4.9798 15.7616 5.34519C15.4375 5.71058 15.2367 6.18903 15.1618 6.77962H18.5088ZM29.3835 11.3814H27.7458V10.0754H27.7168C27.1894 11.0657 26.3777 11.5614 25.281 11.5614C24.3911 11.5614 23.6773 11.2186 23.1405 10.533C22.6087 9.84203 22.3424 8.90413 22.3424 7.71752C22.3424 6.44679 22.6368 5.4275 23.2255 4.66235C23.8185 3.89629 24.6072 3.51372 25.5907 3.51372C26.5657 3.51372 27.2753 3.92976 27.7177 4.76002H27.7449V0H29.3835V11.3814ZM27.767 7.86765V6.86192C27.767 6.31655 27.5994 5.85348 27.2651 5.47272C26.9307 5.09286 26.5045 4.90292 25.9872 4.90292C25.3746 4.90292 24.8922 5.14531 24.5392 5.63099C24.1903 6.11577 24.0168 6.78866 24.0168 7.65059C24.0168 8.43111 24.1835 9.04884 24.5187 9.50467C24.8574 9.95508 25.3108 10.1803 25.8808 10.1803C26.4415 10.1803 26.8958 9.96322 27.2438 9.52728C27.5926 9.08683 27.7662 8.53331 27.7662 7.86765H27.767ZM33.5073 2.07929C33.2384 2.07929 33.0079 1.98704 32.8147 1.80163C32.6284 1.62146 32.5252 1.36384 32.5323 1.09617C32.5323 0.811275 32.6259 0.57341 32.8147 0.382575C33.0079 0.192644 33.2384 0.0976786 33.5073 0.0976786C33.7846 0.0976786 34.0203 0.192644 34.2134 0.382575C34.4066 0.572505 34.5027 0.811275 34.5027 1.09617C34.5027 1.3666 34.4066 1.59904 34.2134 1.79439C34.0203 1.98432 33.7846 2.07929 33.5073 2.07929ZM34.3181 11.3814H32.6803V3.6937H34.3181V11.3814ZM43.1747 11.3814H41.5855V10.1803H41.5574C41.0588 11.101 40.3263 11.5614 39.3615 11.5614C38.6503 11.5614 38.0921 11.356 37.6872 10.9463C37.2873 10.5357 37.0874 9.99216 37.0874 9.31655C37.0874 7.86494 37.8735 7.0193 39.4457 6.77962L41.5931 6.45674C41.5931 5.36057 41.1031 4.81248 40.1238 4.81248C39.262 4.81248 38.4852 5.12722 37.7927 5.75852V4.23455C38.5558 3.75339 39.4364 3.51372 40.4344 3.51372C42.261 3.51281 43.1747 4.4697 43.1747 6.37986V11.3814ZM41.5923 7.60537L40.0745 7.83057C39.604 7.89569 39.2484 8.01779 39.0084 8.19777C38.7728 8.37323 38.6554 8.68345 38.6554 9.12933C38.6554 9.45493 38.7634 9.72174 38.9795 9.93247C39.2007 10.1378 39.4951 10.24 39.8626 10.24C40.362 10.24 40.773 10.0555 41.0988 9.68465C41.4281 9.30932 41.5923 8.83901 41.5923 8.27374V7.60446V7.60537ZM51.9872 10.2707H51.9591V11.3814H50.3205V0H51.9591V5.04492H51.9872C52.5478 4.02382 53.3663 3.51372 54.4451 3.51372C55.358 3.51372 56.0718 3.85921 56.5848 4.54929C57.1029 5.23485 57.3616 6.15647 57.3616 7.31233C57.3616 8.59843 57.0723 9.62948 56.4929 10.4055C55.9144 11.1761 55.1231 11.5614 54.1201 11.5614C53.1782 11.5614 52.4678 11.1308 51.9872 10.2698V10.2707ZM51.9446 7.21465V8.16792C51.9446 8.72867 52.1122 9.2044 52.4466 9.59421C52.7852 9.98493 53.214 10.1803 53.7313 10.1803C54.3387 10.1803 54.8143 9.92976 55.158 9.42961C55.5068 8.92312 55.6804 8.22038 55.6804 7.31957C55.6804 6.56437 55.5188 5.97377 55.1938 5.54778C54.873 5.11728 54.4374 4.90202 53.887 4.90202C53.3033 4.90202 52.832 5.1227 52.4747 5.56226C52.1216 6.00362 51.9446 6.55442 51.9446 7.21465ZM65.5733 11.3814H63.9841V10.1803H63.956C63.4566 11.101 62.724 11.5614 61.7593 11.5614C61.0489 11.5614 60.4907 11.356 60.0858 10.9463C59.6859 10.5357 59.4851 9.99216 59.4851 9.31655C59.4851 7.86494 60.2712 7.0193 61.8443 6.77962L63.9909 6.45674C63.9909 5.36057 63.5017 4.81248 62.5224 4.81248C61.6606 4.81248 60.8838 5.12722 60.1913 5.75852V4.23455C60.9544 3.75339 61.835 3.51372 62.8329 3.51372C64.6596 3.51372 65.5725 4.4697 65.5725 6.38077V11.3814H65.5733ZM63.9909 7.60537L62.4731 7.83057C62.0017 7.89569 61.6461 8.01779 61.4062 8.19777C61.1705 8.37323 61.0531 8.68345 61.0531 9.12933C61.0531 9.45493 61.1612 9.72174 61.3781 9.93247C61.5993 10.1378 61.8937 10.24 62.2604 10.24C62.7598 10.24 63.1716 10.0555 63.4966 9.68465C63.8258 9.30932 63.9909 8.83901 63.9909 8.27374V7.60446V7.60537ZM75 3.6937L71.7372 12.6123C71.0592 14.2041 70.108 15 68.8837 15C68.54 15 68.2533 14.9674 68.0219 14.9023V13.4534C68.2814 13.5439 68.517 13.5891 68.728 13.5891C69.3406 13.5891 69.7975 13.268 70.0986 12.6277L70.5861 11.366L67.7113 3.6937H69.5269L71.2497 9.27947C71.2685 9.34911 71.311 9.53452 71.3774 9.83479H71.4114C71.4361 9.71993 71.4778 9.53995 71.539 9.29394L73.3469 3.6937H75Z" fill="#2D2D2D"/>
</svg>

<svg width="75" height="15" viewBox="0 0 75 15" xmlns="http://www.w3.org/2000/svg" fill="none"><path d="M10.813 11.381h-1.639v-4.189c0-.805-.108-1.388-.325-1.749-.212-.36-.572-.541-1.08-.541-.428 0-.793.228-1.094.684-.297.455-.445 1.001-.445 1.637v4.159h-1.646v-4.332c0-1.431-.476-2.147-1.427-2.147-.442 0-.808.215-1.095.646-.282.431-.424.989-.424 1.674v4.16h-1.638v-7.688h1.639v1.216h.028c.522-.932 1.282-1.397 2.281-1.397.499 0 .934.147 1.306.443.377.289.633.673.77 1.149.536-1.062 1.337-1.592 2.401-1.592 1.591 0 2.387 1.044 2.387 3.13v4.738zm9.279-3.371h-4.93c.019.711.224 1.259.614 1.644.396.385.937.578 1.625.578.772 0 1.48-.245 2.125-.736v1.405c-.659.441-1.53.66-2.614.66-1.063 0-1.899-.347-2.506-1.044-.603-.7-.904-1.684-.904-2.95 0-1.196.332-2.17.996-2.92.669-.755 1.497-1.133 2.486-1.133.989 0 1.754.337 2.296 1.013.542.676.813 1.614.813 2.816v.668zm-1.582-1.231c-.004-.626-.143-1.112-.417-1.456-.272-.351-.649-.526-1.129-.526-.471 0-.871.183-1.201.548-.324.365-.525.844-.6 1.434h3.347zm10.875 4.602h-1.638v-1.306h-.029c-.527.99-1.339 1.486-2.436 1.486-.89 0-1.604-.343-2.14-1.028-.532-.691-.798-1.629-.798-2.815 0-1.271.294-2.29.883-3.055.593-.766 1.382-1.149 2.365-1.149.975 0 1.685.416 2.127 1.246h.027v-4.76h1.639v11.381zm-1.617-3.514v-1.006c0-.545-.168-1.008-.502-1.389-.334-.38-.761-.57-1.278-.57-.613 0-1.095.242-1.448.728-.349.485-.522 1.158-.522 2.02 0 .781.167 1.398.502 1.854.339.45.792.676 1.362.676.561 0 1.015-.217 1.363-.653.349-.44.522-.994.522-1.66h.001zm5.74-5.788c-.269 0-.499-.092-.693-.278-.186-.18-.29-.438-.282-.705 0-.285.094-.523.282-.714.193-.19.424-.285.693-.285.277 0 .513.095.706.285.193.19.289.429.289.714 0 .27-.096.503-.289.698-.193.19-.429.285-.706.285zm.811 9.302h-1.638v-7.688h1.638v7.688zm8.857 0h-1.589v-1.201h-.028c-.499.921-1.231 1.381-2.196 1.381-.711 0-1.269-.205-1.674-.615-.4-.411-.6-.954-.6-1.63 0-1.452.786-2.297 2.358-2.537l2.147-.323c0-1.096-.49-1.644-1.469-1.644-.862 0-1.639.315-2.331.946v-1.524c.763-.481 1.644-.721 2.642-.721 1.827-.001 2.74.956 2.74 2.866v5.002zm-1.582-3.776l-1.518.225c-.471.065-.826.187-1.066.367-.236.175-.353.486-.353.932 0 .326.108.592.324.803.221.205.516.308.883.308.499 0 .91-.184 1.236-.555.329-.375.494-.846.494-1.411v-.669.001zm10.395 2.665h-.028v1.111h-1.639v-11.381h1.639v5.045h.028c.561-1.021 1.379-1.531 2.458-1.531.913 0 1.627.345 2.14 1.036.518.686.777 1.607.777 2.763 0 1.286-.289 2.317-.869 3.093-.578.771-1.37 1.156-2.373 1.156-.942 0-1.652-.431-2.133-1.292v.001zm-.043-3.056v.953c0 .561.168 1.036.502 1.426.339.391.767.586 1.285.586.607 0 1.083-.251 1.427-.751.349-.506.522-1.209.522-2.11 0-.755-.162-1.346-.487-1.772-.321-.431-.756-.646-1.307-.646-.584 0-1.055.221-1.412.66-.353.441-.53.992-.53 1.652zm13.629 4.167h-1.589v-1.201h-.028c-.499.921-1.232 1.381-2.197 1.381-.71 0-1.269-.205-1.674-.615-.4-.411-.601-.954-.601-1.63 0-1.452.786-2.297 2.359-2.537l2.147-.323c0-1.096-.489-1.644-1.469-1.644-.862 0-1.639.315-2.331.946v-1.524c.763-.481 1.644-.721 2.642-.721 1.827 0 2.74.956 2.74 2.867v5.001h.001zm-1.582-3.776l-1.518.225c-.471.065-.827.187-1.067.367-.236.175-.353.486-.353.932 0 .326.108.592.325.803.221.205.516.308.882.308.499 0 .911-.184 1.236-.555.329-.375.494-.846.494-1.411v-.669.001zm11.009-3.912l-3.263 8.919c-.678 1.592-1.629 2.388-2.853 2.388-.344 0-.63-.033-.862-.098v-1.449c.26.091.495.136.706.136.613 0 1.07-.321 1.371-.961l.487-1.262-2.875-7.672h1.816l1.723 5.586.128.555h.034l.128-.541 1.808-5.6h1.653z" fill="#2D2D2D"/></svg>
